demo/workspace/ccd_style_advanced_info_pro/history/step-0002.pp3
[Exposure]
Auto=false
Compensation=0.2
Brightness=0
Contrast=30
Saturation=25
Black=0
HistogramMatching=false
CurveFromHistogramMatching=false
ClampOOG=false
CurveMode=Standard
CurveMode2=Standard

[White Balance]
Enabled=true
Setting=Custom
Temperature=5200
Green=1
Equal=1
TemperatureBias=0
CompatibilityVersion=2

[Sharpening]
Enabled=true
Contrast=30
Method=usm
Radius=0.8
BlurRadius=0.2
Amount=200
Threshold=20;80;2000;1200;
OnlyEdges=false
EdgedetectionRadius=1.9
EdgeTolerance=1800
HalocontrolEnabled=false
HalocontrolAmount=85

[Crop]
Enabled=true
X=403
Y=606
W=3226
H=4844
FixedRatio=false
Ratio=As Image
Orientation=As Image
Guide=Frame
