demo/workspace/ccd_style_advanced_info_gpt_54_medium/history/step-0003.pp3
[Exposure]
Auto=false
Compensation=0.4
Brightness=0
Contrast=22
Saturation=20
Black=0
HistogramMatching=false
CurveFromHistogramMatching=false
ClampOOG=false
CurveMode=Standard
CurveMode2=Standard

[Channel Mixer]
Enabled=true
Red=1020;-10;-10;
Green=-20;1050;-30;
Blue=10;-40;1030;

[Directional Pyramid Denoising]
Enabled=true
Enhance=false
Median=false
Luma=8
Ldetail=28
Chroma=12
Method=Lab
LMethod=SLI
CMethod=MAN
C2Method=AUTO
SMethod=shal
MedMethod=soft
RGBMethod=soft
MethodMed=none
Redchro=0
Bluechro=0
AutoGain=true
Gamma=1.7
Passes=1
LCurve=0;
CCCurve=0;

[White Balance]
Enabled=true
Setting=Custom
Temperature=5250
Green=1.01
Equal=1
TemperatureBias=0
CompatibilityVersion=2

[Shadows & Highlights]
Enabled=true
Highlights=3
HighlightTonalWidth=70
Shadows=12
ShadowTonalWidth=30
Radius=40
Lab=false

[Sharpening]
Enabled=true
Contrast=34
Method=usm
Radius=0.75
BlurRadius=0.2
Amount=180
Threshold=20;80;2000;1200;
OnlyEdges=false
EdgedetectionRadius=1.9
EdgeTolerance=1800
HalocontrolEnabled=false
HalocontrolAmount=85

[Crop]
Enabled=true
X=726
Y=848
W=2580
H=3876
FixedRatio=false
Ratio=As Image
Orientation=As Image
Guide=Frame
