demo/workspace/ccd_style_advanced_info_gpt_54_medium/history/step-0002.pp3
[Exposure]
Auto=false
Compensation=0.25
Brightness=0
Contrast=24
Saturation=18
Black=0
HistogramMatching=false
CurveFromHistogramMatching=false
ClampOOG=false
CurveMode=Standard
CurveMode2=Standard

[Channel Mixer]
Enabled=true
Red=1040;-20;-20;
Green=-40;1080;-40;
Blue=20;-60;1040;

[Directional Pyramid Denoising]
Enabled=true
Enhance=false
Median=false
Luma=8
Ldetail=28
Chroma=12
Method=Lab
LMethod=SLI
CMethod=MAN
C2Method=AUTO
SMethod=shal
MedMethod=soft
RGBMethod=soft
MethodMed=none
Redchro=0
Bluechro=0
AutoGain=true
Gamma=1.7
Passes=1
LCurve=0;
CCCurve=0;

[White Balance]
Enabled=true
Setting=Custom
Temperature=4900
Green=1.03
Equal=1
TemperatureBias=0
CompatibilityVersion=2

[Shadows & Highlights]
Enabled=true
Highlights=4
HighlightTonalWidth=70
Shadows=10
ShadowTonalWidth=30
Radius=40
Lab=false

[Sharpening]
Enabled=true
Contrast=36
Method=usm
Radius=0.8
BlurRadius=0.2
Amount=190
Threshold=20;80;2000;1200;
OnlyEdges=false
EdgedetectionRadius=1.9
EdgeTolerance=1800
HalocontrolEnabled=false
HalocontrolAmount=85

[Crop]
Enabled=true
X=726
Y=848
W=2580
H=3876
FixedRatio=false
Ratio=As Image
Orientation=As Image
Guide=Frame
