demo/workspace/japanese_film_style/session.pp3
[Exposure]
Auto=false
Compensation=1.2
Brightness=0
Contrast=-15
Saturation=-10
Black=0
HistogramMatching=false
CurveFromHistogramMatching=false
ClampOOG=false
CurveMode=Standard
CurveMode2=Standard

[Shadows & Highlights]
Enabled=true
Highlights=20
HighlightTonalWidth=70
Shadows=30
ShadowTonalWidth=30
Radius=40
Lab=false

[Crop]
Enabled=true
X=605
Y=908
W=2822
H=4240
FixedRatio=false
Ratio=As Image
Orientation=As Image
Guide=Frame
