demo/workspace/ccd_style_advanced_info_gpt_54_mini_medium/history/step-0002.pp3
[Exposure]
Auto=false
Compensation=0.15
Brightness=0
Contrast=10
Saturation=-6
Black=0
HistogramMatching=false
CurveFromHistogramMatching=false
ClampOOG=false
CurveMode=Standard
CurveMode2=Standard

[Directional Pyramid Denoising]
Enabled=true
Enhance=false
Median=false
Luma=8
Ldetail=6
Chroma=12
Method=Lab
LMethod=SLI
CMethod=MAN
C2Method=AUTO
SMethod=shal
MedMethod=soft
RGBMethod=soft
MethodMed=none
Redchro=0
Bluechro=0
AutoGain=true
Gamma=1.7
Passes=1
LCurve=0;
CCCurve=0;

[White Balance]
Enabled=true
Setting=Custom
Temperature=5000
Green=1.01
Equal=1
TemperatureBias=0
CompatibilityVersion=2

[Shadows & Highlights]
Enabled=true
Highlights=18
HighlightTonalWidth=70
Shadows=12
ShadowTonalWidth=30
Radius=40
Lab=false

[Sharpening]
Enabled=true
Contrast=20
Method=usm
Radius=0.6
BlurRadius=0.2
Amount=90
Threshold=20;80;2000;1200;
OnlyEdges=false
EdgedetectionRadius=1.9
EdgeTolerance=1800
HalocontrolEnabled=false
HalocontrolAmount=85

[Crop]
Enabled=true
X=835
Y=363
W=2362
H=5330
FixedRatio=false
Ratio=As Image
Orientation=As Image
Guide=Frame
