demo/workspace/ccd_style_advanced_info_flash/history/step-0002.pp3
[Exposure]
Auto=false
Compensation=0.3
Brightness=0
Contrast=20
Saturation=25
Black=0
HistogramMatching=false
CurveFromHistogramMatching=false
ClampOOG=false
CurveMode=Standard
CurveMode2=Standard

[Shadows & Highlights]
Enabled=true
Highlights=15
HighlightTonalWidth=70
Shadows=0
ShadowTonalWidth=30
Radius=40
Lab=false

[Sharpening]
Enabled=true
Contrast=20
Method=usm
Radius=0.5
BlurRadius=0.2
Amount=180
Threshold=20;80;2000;1200;
OnlyEdges=false
EdgedetectionRadius=1.9
EdgeTolerance=1800
HalocontrolEnabled=false
HalocontrolAmount=85

[Crop]
Enabled=true
X=806
Y=1211
W=2420
H=3634
FixedRatio=false
Ratio=As Image
Orientation=As Image
Guide=Frame
