demo/workspace/fujifilm_style_advanced_info_pro/history/step-0001.pp3
[Exposure]
Auto=false
Compensation=0
Brightness=0
Contrast=0
Saturation=0
Black=0
HistogramMatching=false
CurveFromHistogramMatching=false
ClampOOG=false
CurveMode=Standard
CurveMode2=Standard
