demo/workspace/history/step-0003.pp3
[Exposure]
Auto=false
Compensation=0.2
Brightness=0
Contrast=15
Saturation=25
Black=0
HistogramMatching=false
CurveFromHistogramMatching=false
ClampOOG=false
CurveMode=Standard
CurveMode2=Standard

[Channel Mixer]
Enabled=true
Red=1050;50;0;
Green=0;1000;0;
Blue=0;50;1050;

[Shadows & Highlights]
Enabled=true
Highlights=20
HighlightTonalWidth=70
Shadows=20
ShadowTonalWidth=30
Radius=40
Lab=false

[Sharpening]
Enabled=true
Contrast=20
Method=usm
Radius=0.5
BlurRadius=0.2
Amount=150
Threshold=20;80;2000;1200;
OnlyEdges=false
EdgedetectionRadius=1.9
EdgeTolerance=1800
HalocontrolEnabled=false
HalocontrolAmount=85

[Crop]
Enabled=true
X=245
Y=163
W=4410
H=2939
FixedRatio=false
Ratio=As Image
Orientation=As Image
Guide=Frame
